X: 23
T:Woo'd and Married and a'
M:9/8
L:1/8
R:Slip Jig
K:Dm
f|"F"c2B ABG F2B|"F"A/B/cc "C"cdA "F"c2f|"F"c2B ABG FGA|"Dm"D2d "A"de^c
"Dm"d2:|!
f|"F"cde fgf edc|"F"A/B/cc "C"cdA "F"c2d|"F"cde fgf edc|"Dm"A2d "A"de^c
"Dm"d2 f|!
"F"cde fga "C"efg|"Am"A/B/cA "Bb"fcA "C"c2f|"F"c>dB ABG FGA|"Dm"D2d "A"d
e^c "Dm"d2||
